priv/static/svgs/icons_new/sport-diving.svg

<svg width="32" height="32" viewBox="0 0 32 32" fill="none" xmlns="http://www.w3.org/2000/svg">
<path d="M21.6674 23.771C21.0786 25.2067 19.6367 26.1739 17.9748 26.1739H17.3395M21.9233 13.7391V9.78258C21.9233 9.47029 22.4282 9.21736 23.0515 9.21736C23.6748 9.21736 24.1796 9.47029 24.1796 9.78258V22.7826C24.1796 25.904 21.654 28.4347 18.5389 28.4347H17.2105M7.38286 19.0536C7.48791 18.5703 7.76008 17.3473 7.76008 17.3473C7.87008 16.8867 7.89405 16.6931 8.40101 16.4952C8.73029 16.39 9.14841 16.2564 9.55243 16.1865M15.7185 26.7391C15.7185 27.9877 14.7083 29 13.4622 29C12.2161 29 11.2059 27.9877 11.2059 26.7391C11.2059 25.4905 12.2161 24.4782 13.4622 24.4782C14.7083 24.4782 15.7185 25.4905 15.7185 26.7391ZM20.7952 6.95649C20.7952 7.89297 20.0375 8.65214 19.1029 8.65214C18.1683 8.65214 17.4107 7.89297 17.4107 6.95649C17.4107 6.02001 18.1683 5.26084 19.1029 5.26084C20.0375 5.26084 20.7952 6.02001 20.7952 6.95649ZM27 5.26084C27 6.19732 26.2424 6.95649 25.3078 6.95649C24.3732 6.95649 23.6155 6.19732 23.6155 5.26084C23.6155 4.32435 24.3732 3.56519 25.3078 3.56519C26.2424 3.56519 27 4.32435 27 5.26084ZM13.4622 13.7391C15.8623 13.7391 18.1687 14.0556 19.8609 14.6109C20.8184 14.9939 21.1132 16.0621 21.2591 16.7849C21.4051 17.5077 21.5665 18.2467 21.8662 19.6492C22.1659 21.0516 21.2464 22.5515 19.8701 22.7903C18.6143 23.0193 18.4535 23.1295 17.1907 23.3337C15.9279 23.5378 15.1868 21.0876 13.4615 21.0876C11.7361 21.0876 10.9951 23.5378 9.73223 23.3337C8.46941 23.1295 8.30864 23.0193 7.05287 22.7903C5.67653 22.5515 4.75708 21.0516 5.05675 19.6492C5.35641 18.2467 5.51788 17.5077 5.66383 16.7849C5.80979 16.0621 6.10452 14.9939 7.06204 14.6109C8.75426 14.0556 11.0606 13.7391 13.4608 13.7391H13.4622Z" stroke="black" stroke-miterlimit="10" stroke-linecap="round"/>
</svg>

<svg width="32" height="32" viewBox="0 0 32 32" fill="none" xmlns="http://www.w3.org/2000/svg">
  <symbol id="item" viewBox="0 0 32 32" stroke-width="1" fill="none">
    <path d="M21.667 23.771c-.588 1.436-2.03 2.403-3.692 2.403h-.636m4.584-12.435V9.783c0-.313.505-.566 1.129-.566.623 0 1.128.253 1.128.566v13a5.647 5.647 0 0 1-5.641 5.652H17.21m-9.827-9.381c.105-.484.377-1.707.377-1.707.11-.46.134-.654.641-.852.33-.105.747-.239 1.151-.309M15.72 26.74c0 1.249-1.01 2.261-2.257 2.261a2.259 2.259 0 0 1-2.256-2.26c0-1.25 1.01-2.262 2.256-2.262a2.259 2.259 0 0 1 2.257 2.261Zm5.076-19.783c0 .937-.758 1.696-1.692 1.696-.935 0-1.692-.759-1.692-1.696 0-.936.757-1.695 1.692-1.695.934 0 1.692.759 1.692 1.695ZM27 5.261c0 .936-.758 1.695-1.692 1.695-.935 0-1.692-.759-1.692-1.695 0-.937.757-1.696 1.692-1.696.934 0 1.692.76 1.692 1.696Zm-13.538 8.478c2.4 0 4.707.317 6.399.872.957.383 1.252 1.451 1.398 2.174.146.723.308 1.462.607 2.864.3 1.403-.62 2.902-1.996 3.141-1.256.23-1.417.34-2.68.544-1.262.204-2.003-2.246-3.729-2.246-1.725 0-2.466 2.45-3.729 2.246-1.263-.204-1.423-.315-2.68-.544-1.375-.238-2.295-1.738-1.995-3.14.3-1.403.46-2.142.607-2.865.146-.723.44-1.791 1.398-2.174 1.692-.555 3.999-.872 6.399-.872h.001Z" stroke="currentColor" stroke-miterlimit="10" stroke-linecap="round"/>
  </symbol>
</svg>
